X:465
T:Gramachree Molly. RH.465
R:mush
S:Rev.R.Harrison’s MS,c1815,Cumbria
N:There is a penchant in certain parts of Britain for
N:adding pointless complications to the degree that
N:the confection loses all musical value. PJHeadford.
O:England
A:Temple Sowerby,Cumbria
Z:vmp.Simon Wilson. Review PJH, 2008.
M:C
L:1/16
Q:2/4=40
K:G
G4 g4|d3ed3c e3fg3e|d3BA3B G4z2d2|\
g3fg2a2 d2f2e2d2|e3dg3B d6d2|\
g3fg3f g2f2e2d2|e2d2c2B2 e6f2|\
g3fe3d e2f2g2{ab}e2|d2B2A3B G4:|
G4|”Var 1″d>^cd>e dBAG e>de>f agfe|dgBd dcBA G4z2d2|\
g>fg>a gaba g2f2e2d2|edef gBc^cd6d2|
gfga gaba gGfG eGfG|eGdG cGBG (e4e)gfa|\
g3fe3d e2e/g/f/a/ g3{ab}e|d3BA3B G4||
G4|”Var 2″.d2 (B/c/B/c/) .d2 ((3dBG) .e2 c/d/c/d/ .e2 ((3gfe)|\
((6dgbd’bg) ((6dedcBA) G4z2d2|g2 ((3gba) g2g2 .g2.f2.e2.d2|\
((3ece) ((3geg) ((3c’ba) ((3gfe) d6f2|
g2G2 ((3GBd) ((3gba) .g2.f2.e2.d2|.e2.d2.c2.B2e4z2f2|\
g3fe3d e2 c’af g2{ab}e2|d3BA3B G4||
G4|”Var 3″d2B/c/B/c/ d/g/f/g/ a/g/f/g/\
e2 c/d/c/d/ e/f/e/f/ a/g/f/e/|\
dd’bg (d/g/f/e/ d/c/B/A/)G4z2d2|
g/(G/A/B/ c/d/e/f/ g/a/b/a/) gg \
g2f2e2d2|e/^c/e/f/ ef g/a/b/a/ gB d6f2|
g/G/G/G/ (G/A/B/c/ d/e/f/g/) ag2f2e2d-|\
de2d2c2Be4z/(G/A/B/ c/d/e/f/)|!
g3fe3d (e/c/d/e/ f/g/a/b/) c’3e|d3BA3B G4||
dc|”Var 4″BGBd gdBG eceg c’gfe|dgBd dcBA G4z2d2|\
.g(GG)(g g)(GG)g g3ab3a gfed|efgf edcB d4zdfa|
gd.d2 ad.d2 Gg2f Ge2d|Ge2d Gc2B(e4e)gfa|\
g3fe3d e2f2 g3{ab}e|d3BA3B G4|]

